X:1
T:Little Piece of Wang
M:4/4
L:1/4
K:C
 z2 z G/2G/2| E E E E/2^D/2| E/2 F3/2- F E| D E D C| B,3 D| G,3/2 G,/2 B, D|\
 A/2 A3/2 A A| B/2 A3/2 D ^D| E3 E| E E E E| E/2 F3/2- F E| E D D E|\
 F2 A,3/2 ^G,/2| G, G, B, D| G2 G3/2 ^G/2| A/2 G3/2 F D| C2 z2|
